src/img/calc/legred.svg

<svg width="68" height="59" viewBox="0 0 68 59" fill="none" xmlns="http://www.w3.org/2000/svg">
<g clip-path="url(#clip0)" filter="url(#filter0_d)">
<path d="M20.6225 2.05564C20.6225 2.05564 13.2715 -6.30067 8.63576 10.6109C4.66225 25.5329 4 34.7513 4 34.7513C4 34.7513 8.17219 14.7227 9.76159 10.2793C11.2848 5.90219 13.9338 -0.928757 20.6225 2.05564Z" fill="#D77C69"/>
<path d="M21.4834 3.64746C21.4834 3.64746 24.7285 11.1416 27.6424 21.2222C30.5563 31.3029 31.6821 34.7515 33.0066 38.7307C34.7947 44.2352 34.6623 47.8828 34.6623 47.8828C34.6623 47.8828 33.6027 43.1078 32.4768 39.9244C30.9536 35.7463 28.1722 26.0636 26.7815 21.8191C24.7947 15.784 21.4834 3.64746 21.4834 3.64746Z" fill="#D77C69"/>
<path d="M18.0397 7.29492C18.0397 7.29492 12.808 15.5849 18.9669 22.8138C24.1987 28.9815 26.9139 31.568 25.3245 36.4757C25.3245 36.4757 26.8477 33.8229 25.7881 30.9711C24.6623 28.1194 18.9007 21.1558 17.9073 17.2429C16.4503 11.871 18.0397 7.29492 18.0397 7.29492Z" fill="#D77C69"/>
<path d="M24.9271 37.0063C24.9271 37.0063 21.4834 40.9192 24.0662 42.9088C26.4503 44.6995 29.7616 43.0415 30.8874 46.1585C32.0132 49.2755 32.6093 51.1988 36.3179 50.9998C40.4238 50.8009 38.702 49.0102 37.4437 48.546C37.4437 48.546 38.9007 49.4082 38.1722 50.1377C37.5761 50.7346 34.9271 51.1325 33.3377 49.8061C31.4172 48.2807 31.8808 45.23 29.894 44.1026C28.3709 43.2404 25.1258 43.3731 24.2649 41.2508C23.404 39.1949 24.9271 37.0063 24.9271 37.0063Z" fill="#D77C69"/>
<path d="M26.053 9.55012C26.053 9.55012 31.0199 4.64245 35.9205 13.264C40.8874 21.8856 49.6291 35.017 53.6689 38.7309C57.7086 42.4448 60.0265 47.6177 60.0265 47.6177C60.0265 47.6177 55.8543 41.3174 53.3377 39.5267C50.8212 37.7361 45.4569 29.7114 42.4106 25.1353C39.298 20.5592 34.7285 10.6112 31.4172 9.28484C28.106 8.02477 26.053 9.55012 26.053 9.55012Z" fill="#D77C69"/>
<path d="M30.4901 17.8398C30.4901 17.8398 28.3046 25.9309 36.5166 29.9764C44.9934 34.1545 46.4503 39.7917 46.4503 39.7917C46.4503 39.7917 45.9205 34.3535 39.0331 30.3743C32.0795 26.2625 30.6887 21.9517 30.4901 17.8398Z" fill="#D77C69"/>
<path d="M47.7086 39.7256C47.7086 39.7256 46.1192 40.9857 45.9868 43.1079C45.8543 44.9649 46.8477 46.0923 49.8278 46.3576C52.808 46.5565 54.1987 46.8218 55.457 48.2145C56.7152 49.6072 57.9073 50.2704 60.2252 50.4031C62.5431 50.5357 64.3311 50.4031 64 49.2757C63.8013 48.6125 62.0133 48.3472 62.0133 48.3472C62.0133 48.3472 63.6689 49.0104 63.6689 49.4746C63.6027 50.0052 61.947 50.2041 60.4901 50.1378C58.9669 50.0052 56.9801 49.4083 55.7219 47.8166C54.4636 46.2249 52.9404 45.9597 51.0199 45.827C49.1656 45.6944 46.9801 45.2965 46.7152 43.0416C46.3841 41.2509 47.7086 39.7256 47.7086 39.7256Z" fill="#D77C69"/>
<path d="M16.7152 19.1001C16.7152 19.1001 23.8676 46.6229 9.29802 49.9389C9.29802 49.9389 18.6358 50.2705 19.5629 36.3433C20.2252 26.3953 18.9007 21.7529 18.9007 21.7529L16.7152 19.1001Z" fill="#D77C69"/>
</g>
<defs>
<filter id="filter0_d" x="0" y="0" width="68" height="59" filterUnits="userSpaceOnUse" color-interpolation-filters="sRGB">
<feFlood flood-opacity="0" result="BackgroundImageFix"/>
<feColorMatrix in="SourceAlpha" type="matrix" values="0 0 0 0 0 0 0 0 0 0 0 0 0 0 0 0 0 0 127 0"/>
<feOffset dy="4"/>
<feGaussianBlur stdDeviation="2"/>
<feColorMatrix type="matrix" values="0 0 0 0 0 0 0 0 0 0 0 0 0 0 0 0 0 0 0.25 0"/>
<feBlend mode="normal" in2="BackgroundImageFix" result="effect1_dropShadow"/>
<feBlend mode="normal" in="SourceGraphic" in2="effect1_dropShadow" result="shape"/>
</filter>
<clipPath id="clip0">
<rect width="60" height="51" fill="white" transform="translate(4)"/>
</clipPath>
</defs>
</svg>

<svg width="68" height="59" fill="none" xmlns="http://www.w3.org/2000/svg"><g clip-path="url(#clip0)" filter="url(#filter0_d)" fill="#D77C69"><path d="M20.622 2.056s-7.35-8.357-11.986 8.555C4.662 25.533 4 34.75 4 34.75S8.172 14.723 9.762 10.28c1.523-4.377 4.172-11.208 10.86-8.223zM21.483 3.647s3.245 7.495 6.16 17.575c2.913 10.08 4.04 13.53 5.364 17.509 1.788 5.504 1.655 9.152 1.655 9.152s-1.06-4.775-2.185-7.959c-1.523-4.178-4.305-13.86-5.695-18.105-1.987-6.035-5.299-18.172-5.299-18.172z"/><path d="M18.04 7.295s-5.232 8.29.927 15.519c5.232 6.168 7.947 8.754 6.358 13.662 0 0 1.523-2.653.463-5.505-1.126-2.852-6.887-9.815-7.88-13.728-1.458-5.372.132-9.948.132-9.948zM24.927 37.006s-3.444 3.913-.86 5.903c2.383 1.79 5.695.133 6.82 3.25 1.126 3.117 1.722 5.04 5.43 4.84 4.107-.198 2.385-1.989 1.127-2.453 0 0 1.457.862.728 1.592-.596.597-3.245.995-4.834-.332-1.92-1.525-1.457-4.576-3.444-5.703-1.523-.863-4.768-.73-5.63-2.852-.86-2.056.663-4.245.663-4.245zM26.053 9.55s4.967-4.908 9.867 3.714c4.967 8.622 13.71 21.753 17.749 25.467 4.04 3.714 6.358 8.887 6.358 8.887s-4.173-6.3-6.69-8.091c-2.516-1.79-7.88-9.816-10.926-14.392-3.113-4.576-7.683-14.524-10.994-15.85-3.311-1.26-5.364.265-5.364.265zM30.49 17.84s-2.185 8.09 6.027 12.136c8.476 4.178 9.933 9.816 9.933 9.816s-.53-5.439-7.417-9.418c-6.953-4.111-8.344-8.422-8.543-12.534z"/><path d="M47.709 39.726s-1.59 1.26-1.722 3.382c-.133 1.857.86 2.984 3.84 3.25 2.981.199 4.372.464 5.63 1.857 1.258 1.392 2.45 2.055 4.768 2.188 2.318.133 4.106 0 3.775-1.127-.199-.664-1.987-.929-1.987-.929s1.656.663 1.656 1.128c-.066.53-1.722.73-3.179.663-1.523-.133-3.51-.73-4.768-2.321-1.258-1.592-2.782-1.857-4.702-1.99-1.854-.133-4.04-.53-4.305-2.785-.33-1.791.994-3.316.994-3.316zM16.715 19.1s7.153 27.523-7.417 30.839c0 0 9.338.331 10.265-13.596.662-9.948-.662-14.59-.662-14.59L16.715 19.1z"/></g><defs><clipPath id="clip0"><path fill="#fff" transform="translate(4)" d="M0 0h60v51H0z"/></clipPath><filter id="filter0_d" x="0" y="0" width="68" height="59" filterUnits="userSpaceOnUse" color-interpolation-filters="sRGB"><feFlood flood-opacity="0" result="BackgroundImageFix"/><feColorMatrix in="SourceAlpha" values="0 0 0 0 0 0 0 0 0 0 0 0 0 0 0 0 0 0 127 0"/><feOffset dy="4"/><feGaussianBlur stdDeviation="2"/><feColorMatrix values="0 0 0 0 0 0 0 0 0 0 0 0 0 0 0 0 0 0 0.25 0"/><feBlend in2="BackgroundImageFix" result="effect1_dropShadow"/><feBlend in="SourceGraphic" in2="effect1_dropShadow" result="shape"/></filter></defs></svg>
